packages/core/src/svgs/mintme.svg

<svg width="24" height="24" viewBox="0 0 24 24" fill="none" xmlns="http://www.w3.org/2000/svg">
<g clip-path="url(#clip0_31_13891)">
<path d="M0 0H24V24H0V0Z" fill="#F0F3FA"/>
<path d="M3.85693 8.14286H5.14265V9.42857H3.85693V8.14286ZM8.14265 6.41571H9.42836V7.65857H8.14265V6.41571ZM5.14265 10.2857H6.42836V11.5714H5.14265V10.2857ZM6.85693 8.14286H8.14265V9.42857H6.85693V8.14286ZM3.85693 14.1429H5.14265V15.4286H3.85693V14.1429ZM6.85693 16.2857H8.14265V17.5714H6.85693V16.2857ZM5.99979 12.8571H7.28551V14.1429H5.99979V12.8571ZM13.7141 6C12.9426 6 12.2912 6.14571 11.5712 6.44571V7.65429H10.2855V7.09714C9.91265 7.36286 9.53979 7.73143 9.23122 8.07H9.42836V9H8.39979C8.13919 9.54509 7.94909 10.1212 7.83408 10.7143H8.57122V12H7.71408C7.71408 12.4071 7.75693 12.8829 7.83408 13.2857H8.99979V14.1343L8.14265 14.1429C8.32693 14.5629 8.73408 15.0643 9.00836 15.4286V14.1429H10.2855V15.4286H9.00836C9.19265 15.6729 9.64265 16.2857 9.85693 16.2857H11.1426V17.4171C11.9655 17.8071 12.8312 17.9957 13.6841 18C17.0612 18.0171 19.7184 15.1714 19.7141 12C19.7098 8.82 17.0441 6 13.7141 6ZM8.57122 10.7057V9.41571H9.85693V10.7057H8.57122Z" fill="#D1B000"/>
<path fill-rule="evenodd" clip-rule="evenodd" d="M18.8228 12.167C18.8014 12.2527 18.7799 12.3384 18.7456 12.4241H16.4399C16.4142 12.6084 16.4528 12.7456 16.5556 12.8398C16.6585 12.9384 16.8042 12.9898 16.9628 12.9856C17.2028 12.9898 17.4299 12.8827 17.5456 12.707H18.6299C18.5356 12.8956 18.3942 13.0713 18.2228 13.2213C17.9186 13.4719 17.551 13.6333 17.1606 13.6878C16.7703 13.7423 16.3725 13.6876 16.0114 13.5298C15.7921 13.415 15.6184 13.2291 15.5185 13.0027C15.4207 12.7514 15.4027 12.476 15.4671 12.2141C15.5255 11.9243 15.6536 11.6531 15.8402 11.4239C16.0269 11.1947 16.2666 11.0143 16.5385 10.8984C16.8214 10.7741 17.1385 10.7141 17.4514 10.7141C17.7344 10.7059 18.0152 10.7662 18.2699 10.8898C18.4971 11.0098 18.6685 11.1856 18.7542 11.3956C18.8614 11.6398 18.8828 11.9098 18.8228 12.167ZM17.0142 11.5541C17.1471 11.4684 17.3142 11.4256 17.4728 11.4256C17.6314 11.417 17.7856 11.4684 17.8885 11.5584C17.9956 11.657 18.0342 11.8713 17.9956 11.9998H16.7185C16.7742 11.8584 16.8728 11.6484 17.0185 11.5541H17.0142Z" fill="#181B1E"/>
<path d="M14.0955 11.3998L13.6412 13.7141H14.6741L15.4284 9.85693H14.2069L12.5098 12.5269L11.8284 9.85693H10.6112L9.85693 13.7055H10.8855L11.3398 11.3869L11.8498 13.7055H12.6898L14.0955 11.3998Z" fill="#181B1E"/>
</g>
<defs>
<clipPath id="clip0_31_13891">
<rect width="24" height="24" fill="white"/>
</clipPath>
</defs>
</svg>

<svg xmlns="http://www.w3.org/2000/svg" width="24" height="24" fill="none" viewBox="0 0 24 24"><g clip-path="url(#a)"><path fill="#F0F3FA" d="M0 0h24v24H0z"/><path fill="#D1B000" d="M3.857 8.143h1.286v1.286H3.857zm4.286-1.727h1.285v1.243H8.143zm-3 3.87h1.285v1.285H5.143zm1.714-2.143h1.286v1.286H6.857zm-3 6h1.286v1.286H3.857zm3 2.143h1.286v1.285H6.857zM6 12.857h1.286v1.286H6zM13.714 6c-.771 0-1.423.146-2.143.446v1.208h-1.285v-.557c-.373.266-.746.634-1.055.973h.197V9H8.4a7 7 0 0 0-.566 1.714h.737V12h-.857c0 .407.043.883.12 1.286H9v.848l-.857.009c.184.42.591.921.865 1.286v-1.286h1.278v1.286H9.008c.185.244.635.857.849.857h1.286v1.131c.822.39 1.688.579 2.541.583 3.377.017 6.034-2.829 6.03-6-.004-3.18-2.67-6-6-6m-5.143 4.706v-1.29h1.286v1.29z"/><path fill="#181B1E" fill-rule="evenodd" d="M18.823 12.167a2 2 0 0 1-.077.257H16.44q-.039.275.116.416a.56.56 0 0 0 .407.146c.24.004.467-.103.583-.279h1.084a1.7 1.7 0 0 1-.407.514 2.13 2.13 0 0 1-2.212.309c-.219-.115-.393-.3-.492-.527a1.3 1.3 0 0 1-.052-.789 1.82 1.82 0 0 1 1.071-1.316c.283-.124.6-.184.913-.184.283-.008.564.052.819.176.227.12.399.296.484.506.107.244.129.514.069.771m-1.809-.613a.86.86 0 0 1 .459-.128.6.6 0 0 1 .416.132c.107.099.145.313.107.442h-1.277c.055-.142.154-.352.3-.446z" clip-rule="evenodd"/><path fill="#181B1E" d="m14.096 11.4-.455 2.314h1.033l.754-3.857h-1.221l-1.697 2.67-.682-2.67h-1.217l-.754 3.849h1.029l.454-2.32.51 2.32h.84z"/></g><defs><clipPath id="a"><path fill="#fff" d="M0 0h24v24H0z"/></clipPath></defs></svg>
